blockchains/ethereum/assets/0xb83Cd8d39462B761bb0092437d38b37812dd80A2/logo.svg

<svg fill="none" height="250" viewBox="0 0 250 250" width="250" xmlns="http://www.w3.org/2000/svg" xmlns:xlink="http://www.w3.org/1999/xlink"><clipPath id="a"><path d="m0 0h250v250h-250z"/></clipPath><g clip-path="url(#a)"><path d="m125 250c69.036 0 125-55.964 125-125 0-69.0356-55.964-125-125-125-69.0356 0-125 55.9644-125 125 0 69.036 55.9644 125 125 125z" fill="#6747ed"/><path clip-rule="evenodd" d="m123.177 141.146c-18.49 0-33.3333-14.844-33.3333-33.333 0-18.4901 14.8433-33.3338 33.3333-33.3338s33.333 14.8437 33.333 33.3338c0 18.489-14.843 33.333-33.333 33.333zm0-83.3335c27.604 0 50 22.3958 50 50.0005 0 27.604-22.396 49.999-50 49.999-27.6042 0-50-22.395-50-49.999 0-27.6047 22.3958-50.0005 50-50.0005zm47.656 102.6045c3.386 3.385 3.386 8.593 0 11.718l-33.333 33.334c-3.385 3.385-8.594 3.385-11.719 0-3.385-3.386-3.385-8.594 0-11.719l33.334-33.333c3.125-3.386 8.593-3.386 11.718 0zm19.271-94.2712c0 4.6875-3.646 8.3334-8.333 8.3334-4.688 0-8.334-3.6459-8.334-8.3334s3.646-8.3333 8.334-8.3333c4.427 0 8.333 3.6458 8.333 8.3333z" fill="#fff" fill-rule="evenodd"/></g></svg>

<svg width="250" height="250" viewBox="0 0 250 250" fill="none" xmlns="http://www.w3.org/2000/svg">
<g clip-path="url(#clip0_47_12277)">
<path d="M125 250C194.036 250 250 194.036 250 125C250 55.9644 194.036 0 125 0C55.9644 0 0 55.9644 0 125C0 194.036 55.9644 250 125 250Z" fill="#6747ED"/>
<path fill-rule="evenodd" clip-rule="evenodd" d="M123.177 141.146C104.687 141.146 89.8437 126.302 89.8437 107.813C89.8437 89.3229 104.687 74.4792 123.177 74.4792C141.667 74.4792 156.51 89.3229 156.51 107.813C156.51 126.302 141.667 141.146 123.177 141.146ZM123.177 57.8125C150.781 57.8125 173.177 80.2083 173.177 107.813C173.177 135.417 150.781 157.812 123.177 157.812C95.5728 157.812 73.177 135.417 73.177 107.813C73.177 80.2083 95.5728 57.8125 123.177 57.8125ZM170.833 160.417C174.219 163.802 174.219 169.01 170.833 172.135L137.5 205.469C134.115 208.854 128.906 208.854 125.781 205.469C122.396 202.083 122.396 196.875 125.781 193.75L159.115 160.417C162.24 157.031 167.708 157.031 170.833 160.417ZM190.104 66.1458C190.104 70.8333 186.458 74.4792 181.771 74.4792C177.083 74.4792 173.437 70.8333 173.437 66.1458C173.437 61.4583 177.083 57.8125 181.771 57.8125C186.198 57.8125 190.104 61.4583 190.104 66.1458Z" fill="white"/>
</g>
<defs>
<clipPath id="clip0_47_12277">
<rect width="250" height="250" fill="white"/>
</clipPath>
</defs>
</svg>
